TCanvas/fit3_7.svg

<svg xmlns="http://www.w3.org/2000/svg" viewBox="0 0 1200 800" preserveAspectRatio="none" width="1200" height="800">
 <path d="M0,0H1200V800H0Z" style="fill: white;"></path>
 <g>
  <g transform="translate(120,80)">
   <path d="M0,0H960V640H0Z" style="fill: white; stroke: black; stroke-width: 1;"></path>
   <svg x="0" y="0" overflow="hidden" width="960" height="640" viewBox="0 0 960 640">
    <g>
     <path d="M0,486h20v-4h19v-37h20v-52h19v-58h20v-53h20v-28h19v-2h20v-19h19v-47h20v-13h20v-18h19v7h20v-8h19v-17h20v-16h19v5h20v57h20v80h19v84h20v111h19v94h20v35h20v3h19v2h20v3h19v2h20v-5h20v-3h19v-4h20v-4h19v-3h20v2h20v3h19v5h20v6h19v7h20v2h19v-5h20v4h20v9h19v4h20v-18h19v-42h20v-71h20v-64h19v-83h20v-95h19v-68h20" style="stroke-linejoin: miter; stroke: #00009a; stroke-width: 1; fill: none;"></path>
    </g>
    <g>
     <path d="M1,521l2,-4l2,-3l2,-4l2,-3l2,-3l2,-4l2,-4l2,-3l2,-4l2,-4l2,-3l2,-4l1,-4l2,-4l2,-3l2,-4l2,-4l2,-4l2,-4l2,-4l2,-4l2,-4l2,-4l2,-4l2,-4l2,-5l2,-4l2,-4l2,-4l2,-4l2,-4l2,-5l2,-4l2,-4l2,-4l2,-4l1,-5l2,-4l2,-4l2,-4l2,-5l2,-4l2,-4l2,-4l2,-4l2,-4l2,-4l2,-5l2,-4l2,-4l2,-4l2,-4l2,-4l2,-3l2,-4l2,-4l2,-4l2,-4l2,-3l2,-4l2,-4l1,-3l2,-4l2,-3l2,-4l2,-3l2,-3l2,-4l2,-3l2,-3l2,-3l2,-3l2,-3l2,-3l2,-2l2,-3l2,-3l2,-2l2,-3l2,-2l2,-2l2,-2l2,-2l2,-2l2,-2l1,-2l2,-2l2,-2l2,-1l2,-2l2,-1l2,-1l2,-1l2,-1l2,-1l2,-1l2,-1l2,-1h2" style="fill: none; stroke: red; stroke-width: 2;"></path>
    </g>
    <g>
     <path d="M256,217l2,-8l2,-9l2,-8l2,-8l1,-8l2,-7l2,-7l2,-7l2,-6l2,-6l2,-6l2,-5l2,-5l2,-5l2,-4l2,-4l2,-3l2,-3l2,-3l2,-2l2,-2l2,-1l2,-1h2h2l2,1l2,1l2,1l2,2l1,3l2,3l2,3l2,3l2,5l2,4l2,5l2,5l2,6l2,6l2,6l2,7l2,7l2,7l2,7l2,8l2,8l2,9l2,8l2,9l2,9l2,9l2,9l2,9l1,10l2,9l2,10l2,9l2,10l2,10l2,10l2,9l2,10l2,10l2,9l2,10l2,9l2,10l2,9l2,9l2,9l2,9l2,9l2,9l2,8l2,9l2,8l2,8l2,8l1,7l2,8l2,7l2,7l2,7l2,6l2,7l2,6l2,6l2,6l2,5l2,6l2,5l2,5l2,5l2,5l2,4l2,4l2,4l2,4l2,4" style="fill: none; stroke: red; stroke-width: 2;"></path>
    </g>
    <g>
     <path d="M491,603l2,-1h2l2,-1l3,-1h2l2,-1l2,-1h2l2,-1h3l2,-1l2,-1h2l2,-1h2l2,-1h3l2,-1h2l2,-1h2l2,-1h3l2,-1h2l2,-1h2h2l2,-1h3l2,-1h2h2l2,-1h2h3h2l2,-1h2h2l2,-1h2h3h2h2l2,-1h2h2h3h2h2h2h2h2h2h3h2h2h2h2h2h3h2h2h2h2h2l2,1h3h2h2h2l2,1h2h3h2l2,1h2h2l2,1h3h2l2,1h2h2l2,1h2l3,1h2h2l2,1h2l2,1h3l2,1h2l2,1h2l2,1" style="fill: none; stroke: red; stroke-width: 2;"></path>
    </g>
    <g>
     <path d="M4,529l8,-15l8,-16l8,-17l7,-17l8,-18l8,-19l8,-19l8,-19l8,-19l7,-19l8,-19l8,-18l8,-17l8,-17l8,-16l7,-14l8,-13l8,-11l8,-10l8,-8l8,-6l7,-4l8,-4l8,-1l8,-1l8,-1h8l7,-1l8,-3l8,-4l8,-6l8,-8l8,-10l7,-12l8,-12l8,-12l8,-10l8,-6l8,-1l7,5l8,13l8,20l8,26l8,33l8,38l7,41l8,42l8,42l8,40l8,36l8,33l8,28l7,24l8,19l8,16l8,12l8,9l8,6l7,5l8,3l8,2h8l8,1l8,-1h7l8,-1l8,-2l8,-1l8,-2l8,-1l7,-2l8,-1l8,-2l8,-1l8,-1l8,-1l7,-1l8,-1h8h8l8,-1l8,1h7l8,1l8,1l8,1l8,1l8,2l7,1l8,2l8,2l8,2l8,3l8,2l7,3l8,2l8,3l8,3l8,2" style="fill: none; stroke: red; stroke-width: 2;"></path>
    </g>
   </svg>
   <g>
    <g transform="translate(0,640)">
     <path d="M0,0h960M0,-24V0M20,-12V0M39,-12V0M59,-12V0M78,-12V0M98,-24V0M118,-12V0M137,-12V0M157,-12V0M176,-12V0M196,-24V0M216,-12V0M235,-12V0M255,-12V0M274,-12V0M294,-24V0M313,-12V0M333,-12V0M353,-12V0M372,-12V0M392,-24V0M411,-12V0M431,-12V0M451,-12V0M470,-12V0M490,-24V0M509,-12V0M529,-12V0M549,-12V0M568,-12V0M588,-24V0M607,-12V0M627,-12V0M647,-12V0M666,-12V0M686,-24V0M705,-12V0M725,-12V0M744,-12V0M764,-12V0M784,-24V0M803,-12V0M823,-12V0M842,-12V0M862,-12V0M882,-24V0M901,-12V0M921,-12V0M940,-12V0M960,-12V0" style="stroke: black; stroke-width: 1;"></path>
     <g font-family="Arial" font-size="28" space="preserve" fill="black" text-anchor="middle">
      <text dy=".8em" transform="translate(0,1)">
       85
      </text>
      <text dy=".8em" transform="translate(98,1)">
       90
      </text>
      <text dy=".8em" transform="translate(196,1)">
       95
      </text>
      <text dy=".8em" transform="translate(294,1)">
       100
      </text>
      <text dy=".8em" transform="translate(392,1)">
       105
      </text>
      <text dy=".8em" transform="translate(490,1)">
       110
      </text>
      <text dy=".8em" transform="translate(588,1)">
       115
      </text>
      <text dy=".8em" transform="translate(686,1)">
       120
      </text>
      <text dy=".8em" transform="translate(784,1)">
       125
      </text>
      <text dy=".8em" transform="translate(882,1)">
       130
      </text>
     </g>
    </g>
    <g>
     <path d="M0,0v640M18,631H0M18,611H0M18,592H0M36,573H0M18,554H0M18,535H0M18,516H0M18,497H0M36,478H0M18,459H0M18,440H0M18,420H0M18,401H0M36,382H0M18,363H0M18,344H0M18,325H0M18,306H0M36,287H0M18,268H0M18,248H0M18,229H0M18,210H0M36,191H0M18,172H0M18,153H0M18,134H0M18,115H0M36,96H0M18,76H0M18,57H0M18,38H0M18,19H0M36,0H0" style="stroke: black; stroke-width: 1;"></path>
     <g font-family="Arial" font-size="28" space="preserve" fill="black" text-anchor="end">
      <text dy=".4em" transform="translate(-4,573)">
       1
      </text>
      <text dy=".4em" transform="translate(-4,478)">
       2
      </text>
      <text dy=".4em" transform="translate(-4,382)">
       3
      </text>
      <text dy=".4em" transform="translate(-4,287)">
       4
      </text>
      <text dy=".4em" transform="translate(-4,191)">
       5
      </text>
      <text dy=".4em" transform="translate(-4,96)">
       6
      </text>
      <text dy=".4em" transform="translate(-4)">
       7
      </text>
     </g>
    </g>
   </g>
  </g>
  <g transform="translate(120,4)" font-family="Arial" font-size="40" space="preserve">
   <text fill="black" text-anchor="middle" dy=".8em" transform="translate(480)">
    Example of several fits in subranges
   </text>
  </g>
  <g transform="translate(936,52)" font-family="Arial" font-size="25" space="preserve" fill="black">
   <path d="M0,0H240V128H0Z" style="fill: white; stroke: black; stroke-width: 1;"></path>
   <text text-anchor="middle" dy=".4em" transform="translate(120,16)">
    h
   </text>
   <text text-anchor="start" dy=".4em" transform="translate(12,48)">
    Entries
   </text>
   <text text-anchor="end" dy=".4em" transform="translate(228,48)">
    49
   </text>
   <text text-anchor="start" dy=".4em" transform="translate(12,80)">
    Mean
   </text>
   <text text-anchor="end" dy=".4em" transform="translate(228,80)">
    104.6
   </text>
   <text text-anchor="start" dy=".4em" transform="translate(12,112)">
    Std Dev
   </text>
   <text text-anchor="end" dy=".4em" transform="translate(228,112)">
    14.30
   </text>
   <path d="M0,32h240" style="stroke: black; stroke-width: 1;"></path>
  </g>
 </g>
</svg>

<svg xmlns="http://www.w3.org/2000/svg" viewBox="0 0 1200 800" preserveAspectRatio="none" width="1200" height="800">
 <path d="M0,0H1200V800H0Z" style="fill: white;"></path>
 <g>
  <g transform="translate(120,80)">
   <path d="M0,0H960V640H0Z" style="fill: white; stroke: black; stroke-width: 1;"></path>
   <svg x="0" y="0" overflow="hidden" width="960" height="640" viewBox="0 0 960 640">
    <g>
     <path d="M0,486h20v-4h19v-37h20v-52h19v-58h20v-53h20v-28h19v-2h20v-19h19v-47h20v-13h20v-18h19v7h20v-8h19v-17h20v-16h19v5h20v57h20v80h19v84h20v111h19v94h20v35h20v3h19v2h20v3h19v2h20v-5h20v-3h19v-4h20v-4h19v-3h20v2h20v3h19v5h20v6h19v7h20v2h19v-5h20v4h20v9h19v4h20v-18h19v-42h20v-71h20v-64h19v-83h20v-95h19v-68h20" style="stroke-linejoin: miter; stroke: #00009a; stroke-width: 1; fill: none;"></path>
    </g>
    <g>
     <path d="M1,521L3,517L5,514L7,510L9,507L11,504L13,500L15,496L17,493L19,489L21,485L23,482L25,478L26,474L28,470L30,467L32,463L34,459L36,455L38,451L40,447L42,443L44,439L46,435L48,431L50,427L52,422L54,418L56,414L58,410L60,406L62,402L64,397L66,393L68,389L70,385L72,381L73,376L75,372L77,368L79,364L81,359L83,355L85,351L87,347L89,343L91,339L93,335L95,330L97,326L99,322L101,318L103,314L105,310L107,307L109,303L111,299L113,295L115,291L117,288L119,284L121,280L122,277L124,273L126,270L128,266L130,263L132,260L134,256L136,253L138,250L140,247L142,244L144,241L146,238L148,236L150,233L152,230L154,228L156,225L158,223L160,221L162,219L164,217L166,215L168,213L169,211L171,209L173,207L175,206L177,204L179,203L181,202L183,201L185,200L187,199L189,198L191,197L193,196L195,196" style="fill: none; stroke: red; stroke-width: 2;"></path>
    </g>
    <g>
     <path d="M256,217L258,209L260,200L262,192L264,184L265,176L267,169L269,162L271,155L273,149L275,143L277,137L279,132L281,127L283,122L285,118L287,114L289,111L291,108L293,105L295,103L297,101L299,100L301,99L303,99L305,99L307,100L309,101L311,102L313,104L314,107L316,110L318,113L320,116L322,121L324,125L326,130L328,135L330,141L332,147L334,153L336,160L338,167L340,174L342,181L344,189L346,197L348,206L350,214L352,223L354,232L356,241L358,250L360,259L361,269L363,278L365,288L367,297L369,307L371,317L373,327L375,336L377,346L379,356L381,365L383,375L385,384L387,394L389,403L391,412L393,421L395,430L397,439L399,448L401,456L403,465L405,473L407,481L409,489L410,496L412,504L414,511L416,518L418,525L420,531L422,538L424,544L426,550L428,556L430,561L432,567L434,572L436,577L438,582L440,587L442,591L444,595L446,599L448,603L450,607" style="fill: none; stroke: red; stroke-width: 2;"></path>
    </g>
    <g>
     <path d="M491,603L493,602L495,602L497,601L500,600L502,600L504,599L506,598L508,598L510,597L513,597L515,596L517,595L519,595L521,594L523,594L525,593L528,593L530,592L532,592L534,591L536,591L538,590L541,590L543,589L545,589L547,588L549,588L551,588L553,587L556,587L558,586L560,586L562,586L564,585L566,585L569,585L571,585L573,584L575,584L577,584L579,583L581,583L584,583L586,583L588,583L590,582L592,582L594,582L597,582L599,582L601,582L603,582L605,582L607,582L609,582L612,582L614,582L616,582L618,582L620,582L622,582L625,582L627,582L629,582L631,582L633,582L635,582L637,583L640,583L642,583L644,583L646,583L648,584L650,584L653,584L655,584L657,585L659,585L661,585L663,586L666,586L668,586L670,587L672,587L674,587L676,588L678,588L681,589L683,589L685,589L687,590L689,590L691,591L694,591L696,592L698,592L700,593L702,593L704,594" style="fill: none; stroke: red; stroke-width: 2;"></path>
    </g>
    <g>
     <path d="M4,529L12,514L20,498L28,481L35,464L43,446L51,427L59,408L67,389L75,370L82,351L90,332L98,314L106,297L114,280L122,264L129,250L137,237L145,226L153,216L161,208L169,202L176,198L184,194L192,193L200,192L208,191L216,191L223,190L231,187L239,183L247,177L255,169L263,159L270,147L278,135L286,123L294,113L302,107L310,106L317,111L325,124L333,144L341,170L349,203L357,241L364,282L372,324L380,366L388,406L396,442L404,475L412,503L419,527L427,546L435,562L443,574L451,583L459,589L466,594L474,597L482,599L490,599L498,600L506,599L513,599L521,598L529,596L537,595L545,593L553,592L560,590L568,589L576,587L584,586L592,585L600,584L607,583L615,582L623,582L631,582L639,581L647,582L654,582L662,583L670,584L678,585L686,586L694,588L701,589L709,591L717,593L725,595L733,598L741,600L748,603L756,605L764,608L772,611L780,613" style="fill: none; stroke: red; stroke-width: 2;"></path>
    </g>
   </svg>
   <g>
    <g transform="translate(0,640)">
     <path d="M0,0h960M0,-24V0M20,-12V0M39,-12V0M59,-12V0M78,-12V0M98,-24V0M118,-12V0M137,-12V0M157,-12V0M176,-12V0M196,-24V0M216,-12V0M235,-12V0M255,-12V0M274,-12V0M294,-24V0M313,-12V0M333,-12V0M353,-12V0M372,-12V0M392,-24V0M411,-12V0M431,-12V0M451,-12V0M470,-12V0M490,-24V0M509,-12V0M529,-12V0M549,-12V0M568,-12V0M588,-24V0M607,-12V0M627,-12V0M647,-12V0M666,-12V0M686,-24V0M705,-12V0M725,-12V0M744,-12V0M764,-12V0M784,-24V0M803,-12V0M823,-12V0M842,-12V0M862,-12V0M882,-24V0M901,-12V0M921,-12V0M940,-12V0M960,-12V0" style="stroke: black; stroke-width: 1;"></path>
     <g font-family="Arial" font-size="28" space="preserve" fill="black" text-anchor="middle">
      <text dy=".8em" transform="translate(0,1)">
       85
      </text>
      <text dy=".8em" transform="translate(98,1)">
       90
      </text>
      <text dy=".8em" transform="translate(196,1)">
       95
      </text>
      <text dy=".8em" transform="translate(294,1)">
       100
      </text>
      <text dy=".8em" transform="translate(392,1)">
       105
      </text>
      <text dy=".8em" transform="translate(490,1)">
       110
      </text>
      <text dy=".8em" transform="translate(588,1)">
       115
      </text>
      <text dy=".8em" transform="translate(686,1)">
       120
      </text>
      <text dy=".8em" transform="translate(784,1)">
       125
      </text>
      <text dy=".8em" transform="translate(882,1)">
       130
      </text>
     </g>
    </g>
    <g>
     <path d="M0,0v640M18,631H0M18,611H0M18,592H0M36,573H0M18,554H0M18,535H0M18,516H0M18,497H0M36,478H0M18,459H0M18,440H0M18,420H0M18,401H0M36,382H0M18,363H0M18,344H0M18,325H0M18,306H0M36,287H0M18,268H0M18,248H0M18,229H0M18,210H0M36,191H0M18,172H0M18,153H0M18,134H0M18,115H0M36,96H0M18,76H0M18,57H0M18,38H0M18,19H0M36,0H0" style="stroke: black; stroke-width: 1;"></path>
     <g font-family="Arial" font-size="28" space="preserve" fill="black" text-anchor="end">
      <text dy=".4em" transform="translate(-4,573)">
       1
      </text>
      <text dy=".4em" transform="translate(-4,478)">
       2
      </text>
      <text dy=".4em" transform="translate(-4,382)">
       3
      </text>
      <text dy=".4em" transform="translate(-4,287)">
       4
      </text>
      <text dy=".4em" transform="translate(-4,191)">
       5
      </text>
      <text dy=".4em" transform="translate(-4,96)">
       6
      </text>
      <text dy=".4em" transform="translate(-4)">
       7
      </text>
     </g>
    </g>
   </g>
  </g>
  <g transform="translate(120,4)" font-family="Arial" font-size="40" space="preserve">
   <text fill="black" text-anchor="middle" dy=".8em" transform="translate(480)">
    Example of several fits in subranges
   </text>
  </g>
  <g transform="translate(936,52)" font-family="Arial" font-size="25" space="preserve" fill="black">
   <path d="M0,0H240V128H0Z" style="fill: white; stroke: black; stroke-width: 1;"></path>
   <text text-anchor="middle" dy=".4em" transform="translate(120,16)">
    h
   </text>
   <text text-anchor="start" dy=".4em" transform="translate(12,48)">
    Entries
   </text>
   <text text-anchor="end" dy=".4em" transform="translate(228,48)">
    49
   </text>
   <text text-anchor="start" dy=".4em" transform="translate(12,80)">
    Mean
   </text>
   <text text-anchor="end" dy=".4em" transform="translate(228,80)">
    104.6
   </text>
   <text text-anchor="start" dy=".4em" transform="translate(12,112)">
    Std Dev
   </text>
   <text text-anchor="end" dy=".4em" transform="translate(228,112)">
    14.30
   </text>
   <path d="M0,32h240" style="stroke: black; stroke-width: 1;"></path>
  </g>
 </g>
</svg>
